X:2
T:Blue Skies
C:Irving Berlin
L:1/4
M:C
I:linebreak $
K:F
"Dm" D2 A2 |"DmM" z2 (3G F G |"Dm" A4 |"Bø" z2"Bbo" (3G F G |$"Am" A2"Ab7" C2 |
"Gm" z2"Gb7" C D ||1"F6" F2"Bb" z2 |"Em" z2"A7" E2 :|2"F6" F2"Gm" z2 |"G#ø" z2"Dm" z2 ||$
"F6" F/G/A/B/"F7" c2 |"Gø" (3_d c B"Dm" c2 |"Gø" (3B A G"Am" A2 |$"Gm" (3G F E"F6" F2 ||
"F6" F/G/A/B/"F7" c2 |"Gø" (3_d c B"Dm" c2 |$"Gø" (3B A G"Am" A2 |
"Gm" (3G F E"Eb7" F"_D.C. al 3rd end." E ||3"F6" F4 | z4 |]

